svgs/sharp-light/cars.svg

<svg xmlns="http://www.w3.org/2000/svg" viewBox="0 0 640 512"><!--! Font Awesome Pro 6.6.0 by @fontawesome - https://fontawesome.com License - https://fontawesome.com/license (Commercial License) Copyright 2024 Fonticons, Inc. --><path d="M75.9 0L88 0 296 0l12.1 0 3.3 11.6L340.1 112l11.9 0 32 0 0 32-32 0-8 0-15.6 0-.7 0-19.8 0L56.4 144c-.2 0-.5 0-.7 0L32 144l0 96 0 16 192 0 0 32L32 288l0 48L0 336l0-48 0-32 0-16 0-96 0-32 32 0 11.9 0L72.6 11.6 75.9 0zm208 32L100.1 32 77.2 112l229.6 0L283.9 32zM80 176a24 24 0 1 1 0 48 24 24 0 1 1 0-48zm251.9 0l12.1 0 208 0 12.1 0 3.3 11.6L596.1 288l11.9 0 32 0 0 32 0 96 0 16 0 32 0 48-32 0 0-48-320 0 0 48-32 0 0-48 0-32 0-16 0-96 0-32 32 0 11.9 0 28.7-100.4 3.3-11.6zM608 320l-23.6 0c-.2 0-.5 0-.7 0l-271.3 0c-.2 0-.5 0-.7 0L288 320l0 96 0 16 320 0 0-16 0-96zM539.9 208l-183.9 0-22.9 80 229.6 0-22.9-80zM336 352a24 24 0 1 1 0 48 24 24 0 1 1 0-48zm200 24a24 24 0 1 1 48 0 24 24 0 1 1 -48 0z"/></svg>

<svg xmlns="http://www.w3.org/2000/svg" viewBox="0 0 640 512"><!--! Font Awesome Pro 6.5.2 by @fontawesome - https://fontawesome.com License - https://fontawesome.com/license (Commercial License) Copyright 2024 Fonticons, Inc. --><path d="M75.9 0H88 296h12.1l3.3 11.6L340.1 112H352h32v32H352h-8H328.4h-.7H307.8 56.4c-.2 0-.5 0-.7 0H32v96 16H224v32H32v48H0V288 256 240 144 112H32 43.9L72.6 11.6 75.9 0zm208 32H100.1L77.2 112H306.8L283.9 32zM80 176a24 24 0 1 1 0 48 24 24 0 1 1 0-48zm251.9 0H344 552h12.1l3.3 11.6L596.1 288H608h32v32 96 16 32 48H608V464H288v48H256V464 432 416 320 288h32 11.9l28.7-100.4 3.3-11.6zM608 320H584.4c-.2 0-.5 0-.7 0H312.4c-.2 0-.5 0-.7 0H288v96 16H608V416 320zM539.9 208H356.1l-22.9 80H562.8l-22.9-80zM336 352a24 24 0 1 1 0 48 24 24 0 1 1 0-48zm200 24a24 24 0 1 1 48 0 24 24 0 1 1 -48 0z"/></svg>
